X: 1
T: Mrs. Dr. Stewart's Strathspey
C: William Christie (1778-1849)
N: Christie was a dancing master, fiddler and composer from Cuminestown, Aberdeenshire.
S: https://abcnotation.com/tunePage?a=tunearch.org/wiki/Mrs._Dr._Stewart%27s_Strathspey.no-ext/0001 2022-9-4
R: Strathspey
Q: "Slow, when not danced."
B: Christie - Collection of Strathspeys, Reels, Hornpipes,
B: Waltzes &c. (Edinburgh, 1820, p. 27)
Z: AK/Fiddler?s Companion
M: C
L: 1/16
K: Am
E2 | AA3A3B {AB}d3B {B}A3G | AA3A3B dg3eg3 | dB3 {B}A3B {AB}d3B {B}A3G | (E^F).G.D B,G3 {B,}A,4 A,2 :|
a2 | Ta3gb3g a3ge3g | dg3eg3 d3gb3g | Ta3gb3g Ta3ge3g | ~d3g (ed).c.B {B}A4 A3 ||
a  | Ta3gb3g Ta3ge3g | dg3eg3 d3gb3g | Ta3g {f}e3d {dcB}c3B {B}A3G | (E^F).G.D B,G3 {B,}A,4 A,2 |]
